P2
38 56
151
1 13 1 1 2 1 1 1 1 8 1 1 6 1 1 2 10 1 7 3 1 4 1 5 6 9 1 4 1 2 4 1 1 5 2 2 6 1
2 1 1 2 1 3 1 1 1 2 7 1 2 3 1 2 2 1 1 2 1 13 2 4 11 3 3 2 14 2 1 5 34 45 73 1 4 1
97 45 10 1 5 25 8 8 8 7 7 8 7 7 8 7 7 7 7 6 1 5 10 7 4 3 7 7 7 7 4 4 7 7 7 3 4 7
7 7 7 4 1 5 11 3 4 7 7 7 3 4 7 7 7 7 6 7 7 7 7 7 5 1 5 10 6 5 2 7 7 7 6 7 7 6
7 7 7 8 8 17 1 1 5 34 99 19 1 5 34 45 54 19 1 5 52 45 55 1 5 16 45 8 7 7 6 2 8 7 8 8 2 5
3 1 5 13 7 8 8 8 1 54 45 1 1 5 25 5 6 5 6 17 45 37 1 5 43 54 9 9 9 3 19 1 5 7 45 45 25 8
8 1 6 2 1 5 13 6 7 6 3 3 7 6 6 6 6 7 26 28 1 5 88 45 19 1 5 52 99 1 1 5 16 42 7 8 35 8
7 8 7 3 1 1 5 12 3 4 8 31 45 46 1 5 52 8 7 7 8 8 7 4 3 8 7 7 3 1 1 5 11 7 7 3 4 6
7 7 4 2 6 6 6 7 45 1 5 25 99 4 8 9 4 1 5 7 5 9 8 9 8 44 1 6 7 28 10 1 5 88 54 10 1 5
7 45 54 23 8 8 4 1 5 12 3 5 8 7 8 8 4 4 8 31 46 1 5 16 45 54 37 1 5 25 6 6 8 1 7 28 7 6
5 4 3 4 1 5 7 3 3 3 4 5 6 34 7 7 4 2 3 16 1 5 34 45 54 19 1 4 1 43 40 4 4 8 8 8 9 3
5 8 4 1 5 12 8 8 48 45 28 1 4 1 43 54 29 8 6 2 7 1 4 1 9 8 8 9 8 8 8 8 5 73 1 5 34 45
45 28 1 4 1 29 2 1 5 26 23 5 1 3 3 2 1 1 2 1 5 7 1 2 2 3 4 5 1 5 37 8 6 5 11 1 4 1
43 54 45 10 1 5 7 54 21 8 8 5 3 8 7 8 8 6 1 1 5 9 8 8 42 54 28 1 5 34 54 64 1 5 34 18 8 17
27 8 8 1 8 9 7 1 5 9 9 8 41 45 37 1 5 34 24 6 5 2 4 6 6 7 5 2 6 7 7 7 1 5 8 7 7 7
8 7 7 8 8 7 2 5 7 28 10 1 5 43 45 39 8 5 2 7 1 5 7 2 7 8 7 8 8 45 8 35 10 1 5 16 90 46
1 5 34 45 73 1 5 34 25 7 6 5 6 6 6 5 2 6 6 7 7 1 1 5 7 8 44 54 37 1 5 27 6 3 9 9 19 45
28 1 5 25 54 25 6 5 4 2 25 1 4 1 43 99 9 1 5 7 8 7 8 6 2 7 8 8 7 7 7 8 10 28 1 4 1 43
45 45 19 1 5 43 45 54 10 1 5 7 45 45 55 1 5 14 1 7 7 7 7 6 7 7 6 7 3 4 6 7 7 4 3 7 5 1
5 7 2 7 7 7 5 2 7 7 6 7 6 1 7 7 7 6 1 7 7 7 1 5 8 7 7 7 7 7 6 1 7 7 7 6 2 7
7 7 7 5 2 6 1 5 9 8 7 7 7 4 3 8 7 7 3 5 7 7 8 1 6 7 8 2 1 5 14 1 45 54 37 1 5 34
45 73 0 1 15 0 1 3 3 2 1 2 1 1 10 6 6 7 1 9 1 1 15 4 1 10 3 3 16 2 1 4 1 52 45 55 1 5
16 45 54 37 1 5 25 99 28 1 5 25 45 54 28 1 5 34 54 45 19 1 5 52 45 45 10 1 5 16 45 45 46 1 5 16 45 45
46 1 5 79 45 28 1 4 1 43 45 45 19 1 5 43 45 45 19 1 5 52 54 45 1 1 5 16 45 54 37 1 5 124 28 1 5 25
99 28 1 5 43 45 54 10 1 5 7 99 45 1 1 5 25 45 54 28 1 4 1 43 54 45 10 1 5 61 45 45 1 1 5 25 45 45
37 1 5 34 45 54 19 1 5 34 54 45 19 1 4 1 97 45 10 1 5 16 45 54 37 1 5 25 54 45 28 1 5 25 45 45 9 9
8 3 1 1 5 7 5 8 3 24 5 2 5 2 5 2 3 2 2 3 3 21 20 6 1 4 1 9 32 12 9 4 3 39 5 8 3 4
4 1 5 7 2 6 1 3 4 39 82 1 5 25 54 45 28 1 4 1 43 54 45 10 1 5 7 54 45 45 1 1 5 7 45 45 45 10
1 5 16 99 14 5 8 4 1 1 5 7 4 8 9 19 5 6 8 8 4 4 9 28 14 3 1 4 1 12 29 13 8 8 1 4 5 8
22 22 2 1 5 11 19 45 73 1 5 7 45 54 45 1 1 5 16 136 1 5 34 45 73 1 5 79 45 28 1 4 1 43 45 54 10 1
5 7 45 99 1 1 5 70 45 37 1 5 16 54 45 37 1 5 25 45 82 1 5 16 45 45 45 1 1 5 52 45 45 10 1 5 52 45
54 1 1 5 16 45 45 45 1 1 5 25 99 28 1 5 25 99 28 1 5 34 45 45 28 1 5 25 45 82 1 5 34 45 54 19 1 5
34 54 45 19 1 5 52 45 45 10 1 5 16 135 1 1 5 52 45 54 1 1 5 25 45 45 37 1 5 34 54 45 19 1 5 97 45 10
1 5 16 136 0 1 24 1 0 1 4 2 1 2 5 2 3 1 2 6 2 1 3 1 2 1 4 2 2 4 1 2 1 1 1 2 2 1
1 1 1 3 3 2 1 2 1 1 1 1 1 1 2 1 2 7 3 1 1 1 3 2 2 3 3 2 1 2 3 1 2 1 1 1 1 2
1 1 2 2 4 1 1 3 2 1 1 2 1 1 2 2 3 3 1 7 1 2 1 1 1 1 3 2 1 2 1 1 4 1 1 1 1 2
1 1 3 1 1 2 1 1 1 1 1 3 1 2 1 1 3 1 2 4 1 2 1 1 3 2 1 1 1 2 1 2 1 1 1 15 4 11
3 3 16 1 1 1 5 7 54 45 45 1 1 5 25 45 45 37 1 5 34 45 45 28 1 5 34 54 45 19 1 4 1 52 45 45 10 1
5 151 1 1 5 25 45 45 37 1 5 34 45 45 28 1 4 1 97 45 10 1 5 61 45 45 1 1 5 79 45 28 1 5 25 45 45 37
1 5 97 45 10 1 4 1 43 45 45 19 1 4 1 43 45 64 1 5 7 54 45 45 1 1 5 25 27 3 8 8 8 8 26 8 3 4
1 5 7 8 8 21 4 3 4 3 4 3 3 1 3 3 1 13 8 9 5 4 1 5 12 8 3 32 4 3 3 1 3 4 3 4 3 3
1 4 19 6 17 1 1 5 7 9 9 24 5 4 3 4 3 4 3 3 1 3 3 1 22 6 9 7 1 5 7 2 8 7 25 1 6 26
8 1 42 10 1 5 16 36 7 2 8 8 8 7 25 6 7 2 7 1 5 7 2 8 7 25 9 8 8 8 6 16 24 9 1 5 7 8
18 24 45 45 1 1 5 25 30 10 30 1 39 1 1 1 5 7 3 37 4 5 8 8 4 4 9 28 4 4 2 1 5 10 8 5 31 8
4 4 8 8 9 10 24 5 4 1 5 11 9 32 8 8 8 8 4 5 23 20 1 5 7 45 2 8 4 3 2 6 2 6 20 8 8 8
8 1 5 8 8 8 7 1 21 5 8 4 4 8 9 21 4 20 1 5 34 23 5 8 8 8 9 15 1 4 9 9 2 1 5 14 7 2
4 8 2 8 7 1 8 8 8 8 7 1 43 1 1 5 7 36 62 20 8 5 3 6 1 4 1 10 8 5 15 18 8 8 8 35 17 9
1 4 1 7 8 17 27 8 8 8 8 26 28 1 5 25 27 14 8 8 26 12 8 8 6 1 5 10 5 3 5 24 8 9 8 8 17 45
1 1 5 16 39 5 3 8 8 8 5 24 27 1 4 1 25 17 12 8 8 8 5 3 5 33 8 9 1 5 7 8 8 8 30 8 5 5
24 37 1 5 25 21 3 5 4 9 7 6 4 2 8 12 8 4 3 4 2 1 4 1 9 4 3 4 4 23 5 3 2 2 3 4 3 5
2 4 1 20 7 1 10 1 5 32 19 2 3 3 2 5 2 5 2 3 2 2 6 31 19 1 5 43 11 8 30 19 2 8 4 3 4 2
1 5 9 4 3 4 1 3 22 1 6 35 1 45 1 1 5 25 29 8 4 1 2 4 3 4 3 4 4 2 18 6 1 4 2 2 4 1
1 5 7 2 8 9 19 2 8 4 3 4 3 4 3 4 4 22 3 1 2 2 5 2 4 1 4 1 9 2 5 2 6 13 19 8 8 1
3 1 7 8 2 37 1 5 34 45 73 1 5 34 45 45 28 1 4 1 97 25 8 8 1 7 2 1 5 14 8 8 8 64 45 1 1 5
25 54 43 1 7 8 8 2 1 4 1 14 8 8 8 1 45 45 19 1 5 34 45 45 28 1 4 1 43 99 10 1 4 1 142 10 1 5
16 45 54 37 1 5 25 45 82 1 5 43 45 64 1 5 34 45 45 28 1 5 25 45 45 37 1 5 34 45 45 28 1 5 25 45 54 28
